public/img/magnify.svg

<svg width="80" height="80" viewBox="0 0 80 80" fill="none" xmlns="http://www.w3.org/2000/svg">
<path d="M36.25 23.75C31.7188 23.75 27.6562 26.1719 25.3906 30C23.125 33.9062 23.125 38.6719 25.3906 42.5C27.6562 46.4062 31.7188 48.75 36.25 48.75C40.7031 48.75 44.7656 46.4062 47.0312 42.5C49.2969 38.6719 49.2969 33.9062 47.0312 30C44.7656 26.1719 40.7031 23.75 36.25 23.75ZM36.25 52.5C27.2656 52.5 20 45.2344 20 36.25C20 27.3438 27.2656 20 36.25 20C45.1562 20 52.5 27.3438 52.5 36.25C52.5 40.0781 51.1719 43.5938 48.9844 46.4062L59.375 56.875C60.1562 57.5781 60.1562 58.75 59.375 59.4531C58.6719 60.2344 57.5 60.2344 56.7969 59.4531L46.3281 49.0625C43.5156 51.25 40 52.5 36.25 52.5ZM34.375 43.125V38.125H29.375C28.2812 38.125 27.5 37.3438 27.5 36.25C27.5 35.2344 28.2812 34.375 29.375 34.375H34.375V29.375C34.375 28.3594 35.1562 27.5 36.25 27.5C37.2656 27.5 38.125 28.3594 38.125 29.375V34.375H43.125C44.1406 34.375 45 35.2344 45 36.25C45 37.3438 44.1406 38.125 43.125 38.125H38.125V43.125C38.125 44.2188 37.2656 45 36.25 45C35.1562 45 34.375 44.2188 34.375 43.125Z" fill="#E0EAF2"/>
</svg>

<svg xmlns="http://www.w3.org/2000/svg" width="80" height="80" fill="none"><path fill="#E0EAF2" d="M36.25 23.75c-4.531 0-8.594 2.422-10.86 6.25-2.265 3.906-2.265 8.672 0 12.5 2.266 3.906 6.329 6.25 10.86 6.25 4.453 0 8.516-2.344 10.781-6.25 2.266-3.828 2.266-8.594 0-12.5-2.265-3.828-6.328-6.25-10.781-6.25m0 28.75C27.266 52.5 20 45.234 20 36.25 20 27.344 27.266 20 36.25 20c8.906 0 16.25 7.344 16.25 16.25 0 3.828-1.328 7.344-3.516 10.156l10.391 10.469a1.71 1.71 0 0 1 0 2.578 1.71 1.71 0 0 1-2.578 0l-10.469-10.39A16.37 16.37 0 0 1 36.25 52.5m-1.875-9.375v-5h-5c-1.094 0-1.875-.781-1.875-1.875 0-1.016.781-1.875 1.875-1.875h5v-5c0-1.016.781-1.875 1.875-1.875 1.016 0 1.875.86 1.875 1.875v5h5c1.016 0 1.875.86 1.875 1.875 0 1.094-.86 1.875-1.875 1.875h-5v5c0 1.094-.86 1.875-1.875 1.875-1.094 0-1.875-.781-1.875-1.875"/></svg>
